X: 3
T: Nighean Donn \'A Chuiailein Riomhaich - jig [G]
T: Brown Haired Girl With Lovely Tresses
T: the Dark Haired Maid’s Highland Fling
R: jig
S: https://thesession.org/tunes/4787
M: 6/8
L: 1/8
K: G
|:\
G3 G2B | d2e g2d | e2B d2B | A2B ed2 |\
G3 G2B | d2e g2d | e2B d2B | AG2 G3 :|
|:\
g3 g2b | ag2 g2d | B2c d2d | =f2e ed2 |\
d2g b2g | a2b g2d | e2B d2B | AG2 G3 :|
